assets/img/github.svg

<svg width="16" height="16" viewBox="0 0 16 16" fill="none" xmlns="http://www.w3.org/2000/svg">
<path d="M8 1C4.13438 1 1 4.21563 1 8.17812C1 11.35 3.00625 14.0375 5.7875 14.9875C5.82651 14.996 5.86633 15.0002 5.90625 15C6.16563 15 6.26562 14.8094 6.26562 14.6437C6.26562 14.4719 6.25938 14.0219 6.25625 13.4219C6.0247 13.4762 5.78782 13.5045 5.55 13.5062C4.20313 13.5062 3.89687 12.4594 3.89687 12.4594C3.57812 11.6312 3.11875 11.4094 3.11875 11.4094C2.50938 10.9812 3.11562 10.9687 3.1625 10.9687H3.16563C3.86875 11.0312 4.2375 11.7125 4.2375 11.7125C4.5875 12.325 5.05625 12.4969 5.475 12.4969C5.75189 12.4913 6.02449 12.4274 6.275 12.3094C6.3375 11.8469 6.51875 11.5312 6.71875 11.35C5.16563 11.1687 3.53125 10.5531 3.53125 7.80312C3.53125 7.01875 3.80312 6.37812 4.25 5.87812C4.17812 5.69688 3.9375 4.96562 4.31875 3.97812C4.36989 3.96589 4.42245 3.96063 4.475 3.9625C4.72812 3.9625 5.3 4.05937 6.24375 4.71562C7.39048 4.39478 8.60327 4.39478 9.75 4.71562C10.6938 4.05937 11.2656 3.9625 11.5188 3.9625C11.5713 3.96063 11.6239 3.96589 11.675 3.97812C12.0563 4.96562 11.8156 5.69688 11.7437 5.87812C12.1906 6.38125 12.4625 7.02187 12.4625 7.80312C12.4625 10.5594 10.825 11.1656 9.26562 11.3437C9.51562 11.5656 9.74063 12.0031 9.74063 12.6719C9.74063 13.6312 9.73125 14.4062 9.73125 14.6406C9.73125 14.8094 9.82812 15 10.0875 15C10.1295 15.0002 10.1714 14.996 10.2125 14.9875C12.9969 14.0375 15 11.3469 15 8.17812C15 4.21563 11.8656 1 8 1Z" fill="black"/>
</svg>

<svg width="16" height="16" fill="none" xmlns="http://www.w3.org/2000/svg"><path d="M8 1C4.134 1 1 4.216 1 8.178c0 3.172 2.006 5.86 4.787 6.81a.545.545 0 0 0 .12.012c.259 0 .359-.19.359-.356 0-.172-.007-.622-.01-1.222a3.193 3.193 0 0 1-.706.084c-1.347 0-1.653-1.047-1.653-1.047-.319-.828-.778-1.05-.778-1.05-.61-.428-.003-.44.043-.44h.004c.703.062 1.071.744 1.071.744.35.612.82.784 1.238.784.277-.006.55-.07.8-.188.063-.462.244-.778.444-.959-1.553-.181-3.188-.797-3.188-3.547 0-.784.272-1.425.719-1.925-.072-.181-.313-.912.069-1.9a.583.583 0 0 1 .156-.016c.253 0 .825.097 1.769.754a6.507 6.507 0 0 1 3.506 0c.944-.657 1.516-.754 1.769-.754a.582.582 0 0 1 .156.016c.381.988.14 1.719.069 1.9a2.82 2.82 0 0 1 .719 1.925c0 2.756-1.638 3.363-3.197 3.54.25.223.475.66.475 1.329 0 .96-.01 1.734-.01 1.969 0 .168.097.359.357.359a.603.603 0 0 0 .125-.012c2.784-.95 4.787-3.641 4.787-6.81C15 4.216 11.866 1 8 1Z" fill="#000"/></svg>
